X: 127
T: Bird in the Bush
R:reel
M:C|
K:G
"G"d2eB dB~B2|"C"cBAB "G"G2AG|"Am"EA~A2"G" BG~G2|BGBd "C"g2ge|
"G"d2eB dB~B2|"C"cBAB "G"~G3E|DEGA B2eB|"D"dBAc "G"BG~G2:|
|: "G"Bdef g2fg|"D"afdf gfed|"G"Bdef ~g3b|"D"agab "G"~g3a|
"G"bg~g2 "D"af~f2|"C(Em)"~g3e "G"d~B3|DEGA B2eB|"D"dBAc "G"BG~G2:|


